packages/katcn/src/icons/svg/airplane.svg

<svg width="24" height="24" viewBox="0 0 24 24" fill="none" xmlns="http://www.w3.org/2000/svg">
<path fill-rule="evenodd" clip-rule="evenodd" d="M19.2736 4.69702C18.253 3.68265 16.483 3.79857 15.5733 4.89649L15.5696 4.90098L13.7537 7.06671C13.5217 7.34344 13.1585 7.47357 12.8035 7.40716L5.11056 5.96793C4.7687 5.92432 4.47303 6.0221 4.26987 6.21168C3.88377 6.66408 3.94354 7.21543 4.24971 7.51973C4.29859 7.56831 4.32395 7.59331 4.34536 7.61302C4.35032 7.61758 4.35418 7.62102 4.35706 7.62354C4.36502 7.62689 4.37983 7.63268 4.40403 7.6407C4.46248 7.66006 4.51901 7.68478 4.57291 7.71454L9.47581 10.4217C9.73958 10.5674 9.92362 10.8242 9.97676 11.1208C10.0299 11.4173 9.9465 11.7221 9.74973 11.9502L4.30206 18.267L4.29016 18.2805C3.93694 18.6755 3.97126 19.3351 4.34051 19.7021C4.71183 20.0711 5.38439 20.1072 5.7866 19.7535C5.78711 19.753 5.78761 19.7526 5.78811 19.7521L11.9587 14.2506C11.9678 14.2425 11.977 14.2346 11.9864 14.2268L19.0683 8.36125C19.1379 8.30365 19.2144 8.25617 19.2955 8.21962C20.2421 7.25452 20.2348 5.65229 19.2736 4.69702ZM14.0352 3.61809C15.6683 1.65002 18.7994 1.40592 20.6835 3.27848C22.4388 5.02308 22.4388 7.91558 20.6835 9.66019C20.6812 9.66251 20.6785 9.66518 20.6755 9.66817C20.637 9.70665 20.5453 9.7983 20.44 9.87676C20.3922 9.91241 20.3106 9.96965 20.2 10.0208L13.2761 15.7555L7.11568 21.248L7.11229 21.251C5.88002 22.3397 4.01156 22.1949 2.93064 21.1206C1.84934 20.0459 1.7005 18.1841 2.7928 16.9547L7.43054 11.577L3.67884 9.5055C3.51129 9.44332 3.35555 9.36616 3.20424 9.25874C3.05518 9.15292 2.93372 9.03184 2.85569 8.95405C2.85019 8.94857 2.8449 8.94331 2.83984 8.93827C1.69856 7.80397 1.75506 6.02288 2.7994 4.85518C2.81246 4.84058 2.82594 4.82636 2.83984 4.81255C3.54069 4.11599 4.50065 3.86114 5.41045 3.99031C5.42494 3.99237 5.43938 3.99474 5.45377 3.99744L12.5967 5.33377L14.0352 3.61809Z" fill="black"/>
<path fill-rule="evenodd" clip-rule="evenodd" d="M17.3446 10.1218C17.8849 10.0072 18.4157 10.3522 18.5304 10.8925L20.1529 18.5411C20.1563 18.5572 20.1593 18.5734 20.1619 18.5897C20.3156 19.5438 20.0029 20.5204 19.2299 21.2063C17.7415 22.527 15.4151 22.126 14.3841 20.5577L12.9644 18.3981C12.661 17.9366 12.7892 17.3166 13.2507 17.0132C13.7122 16.7098 14.3322 16.838 14.6356 17.2995L16.0553 19.4591C16.444 20.0504 17.3627 20.1893 17.9025 19.7103C18.1382 19.5012 18.2324 19.2258 18.1904 18.9279L16.5739 11.3075C16.4593 10.7673 16.8043 10.2364 17.3446 10.1218Z" fill="black"/>
</svg>

<svg xmlns="http://www.w3.org/2000/svg" fill="none" viewBox="0 0 24 24"><path fill="#000" fill-rule="evenodd" d="M19.274 4.697c-1.021-1.014-2.791-.898-3.7.2l-.004.004-1.816 2.166a1 1 0 0 1-.95.34L5.11 5.967c-.342-.043-.638.055-.841.245-.386.452-.326 1.003-.02 1.308l.107.104.047.017a1 1 0 0 1 .169.074l4.903 2.707a1 1 0 0 1 .274 1.528l-5.448 6.317-.012.014c-.353.395-.319 1.054.05 1.421.372.37 1.044.405 1.447.051h.001l6.17-5.502.028-.024 7.082-5.866q.105-.086.227-.141c.947-.965.94-2.568-.021-3.523m-5.239-1.079c1.633-1.968 4.764-2.212 6.648-.34 1.756 1.745 1.756 4.638 0 6.382l-.008.008a2 2 0 0 1-.235.209c-.048.035-.13.093-.24.144l-6.924 5.734-6.16 5.493-.004.003c-1.232 1.089-3.1.944-4.181-.13-1.082-1.075-1.23-2.937-.138-4.166l4.638-5.378-3.752-2.072a2 2 0 0 1-.475-.246 3 3 0 0 1-.348-.305l-.016-.016C1.699 7.804 1.755 6.023 2.8 4.855l.04-.042c.7-.697 1.66-.952 2.57-.823l.044.007 7.143 1.337z" clip-rule="evenodd"/><path fill="#000" fill-rule="evenodd" d="M17.345 10.122a1 1 0 0 1 1.185.77l1.623 7.65.009.048a2.85 2.85 0 0 1-.932 2.616c-1.489 1.321-3.815.92-4.846-.648l-1.42-2.16a1 1 0 1 1 1.672-1.099l1.42 2.16c.388.591 1.307.73 1.846.251a.85.85 0 0 0 .288-.782l-1.616-7.62a1 1 0 0 1 .77-1.186" clip-rule="evenodd"/></svg>
